src/images/amenities/breakfast.svg

<svg width="22" height="23" viewBox="0 0 22 23" fill="none" xmlns="http://www.w3.org/2000/svg">
<g clip-path="url(#clip0_643:12)">
<path d="M18.9387 8.95825C18.5469 8.96282 18.1612 9.05828 17.8112 9.23738C17.8991 8.79892 17.9437 8.35265 17.9444 7.9052C17.9444 7.82108 17.9115 7.7404 17.853 7.68091C17.7944 7.62143 17.7151 7.58801 17.6323 7.58801H5.15107C5.06832 7.58801 4.98895 7.62143 4.93043 7.68091C4.87192 7.7404 4.83904 7.82108 4.83904 7.9052C4.83328 9.50387 5.39878 11.0503 6.4304 12.257C5.76932 12.3786 5.14797 12.6642 4.62146 13.0884C4.09494 13.5126 3.67952 14.0623 3.41202 14.6887C3.03757 14.9029 2.7134 15.1973 2.46197 15.5515C2.21054 15.9056 2.03785 16.3111 1.95587 16.7399C1.949 16.7884 1.95332 16.838 1.96848 16.8846C1.98364 16.9312 2.00923 16.9736 2.04324 17.0084L3.63044 18.6218C3.67802 18.6705 3.73981 18.7021 3.80657 18.712C3.87333 18.7219 3.94145 18.7096 4.00072 18.6768L6.05804 17.5434L8.13409 17.1036H10.8716L12.9227 17.5392L14.9884 18.6789C15.0476 18.7117 15.1158 18.724 15.1825 18.7141C15.2493 18.7042 15.3111 18.6726 15.3587 18.6239L16.9458 17.0105C16.9799 16.9757 17.0055 16.9333 17.0206 16.8867C17.0358 16.8401 17.0401 16.7906 17.0332 16.742C16.9519 16.3174 16.7817 15.9156 16.534 15.5638C16.2863 15.2121 15.967 14.9187 15.5979 14.7035C15.4156 14.2817 15.1684 13.8919 14.8656 13.549C15.0528 13.4314 15.234 13.3044 15.4086 13.1684L15.5105 13.0859C16.1346 12.6101 16.821 12.756 17.6115 12.9273C18.0428 13.0361 18.4842 13.0985 18.9283 13.1134C19.469 13.1134 19.9875 12.8951 20.3698 12.5064C20.7521 12.1178 20.9669 11.5907 20.9669 11.0411C20.9669 10.4915 20.7521 9.96441 20.3698 9.57578C19.9875 9.18715 19.469 8.96883 18.9283 8.96883L18.9387 8.95825ZM17.3203 8.22238C17.2865 8.89558 17.1417 9.55822 16.8918 10.1826C16.4011 11.4054 15.5235 12.427 14.3976 13.0859C13.7474 12.5719 12.9667 12.2565 12.1468 12.1766C11.8499 11.7367 11.454 11.3752 10.9919 11.1222C10.5299 10.8692 10.0151 10.7319 9.49039 10.7218C9.01227 10.7228 8.54067 10.8346 8.11139 11.0486C7.68211 11.2625 7.30642 11.5731 7.01286 11.9567C6.0832 10.934 5.53493 9.61291 5.4631 8.22238H17.3203ZM10.6636 16.4692H8.34835L7.38105 12.534C7.60917 12.1761 7.92155 11.8817 8.28988 11.6775C8.65821 11.4733 9.07084 11.3658 9.49039 11.3646C9.91219 11.3771 10.3253 11.4897 10.6966 11.6935C11.0679 11.8973 11.3872 12.1866 11.6288 12.5382L10.6636 16.4692ZM6.809 12.83L7.72221 16.5411L6.10173 16.8921L4.04856 14.8008C4.44588 13.9804 5.23844 13.0605 6.809 12.83ZM3.89671 18.0065L2.6049 16.6807C2.76484 16.0971 3.13653 15.5968 3.645 15.2808L5.4631 17.1459L3.89671 18.0065ZM16.378 16.6828L15.0757 18.0065L13.5197 17.1501L15.3503 15.2893C15.8564 15.6031 16.2266 16.1003 16.3863 16.6807L16.378 16.6828ZM12.9061 16.8921L11.2877 16.5432L12.2009 12.8321C13.7715 13.0626 14.564 13.9804 14.9593 14.8008L12.9061 16.8921ZM18.9387 12.4748C18.538 12.4591 18.14 12.4017 17.7509 12.3035C17.3309 12.196 16.9004 12.1364 16.4674 12.1259C16.8796 11.6157 17.2141 11.0454 17.4597 10.4342C17.6677 9.96479 18.3084 9.58839 18.9408 9.58839C19.3159 9.58839 19.6757 9.73989 19.941 10.0095C20.2063 10.2792 20.3553 10.6449 20.3553 11.0263C20.3553 11.4077 20.2063 11.7734 19.941 12.0431C19.6757 12.3127 19.3159 12.4642 18.9408 12.4642L18.9387 12.4748Z" fill="#39412F"/>
<path d="M10.8301 3.07337C10.3808 3.44553 9.82327 3.9192 9.82327 4.90036C9.83159 6.23042 11.0797 6.8225 11.7495 6.9536H11.8078C11.8905 6.96146 11.973 6.93557 12.037 6.88164C12.1009 6.8277 12.1412 6.75015 12.1489 6.66602C12.1567 6.5819 12.1312 6.4981 12.0781 6.43307C12.0251 6.36803 11.9488 6.32709 11.866 6.31923C11.8078 6.31923 10.4557 6.03588 10.4557 4.90036C10.4557 4.20466 10.8072 3.91074 11.2233 3.57029C11.5956 3.26157 12.0179 2.91055 12.0179 2.27195C12.0255 2.08935 11.9958 1.90713 11.9307 1.73679C11.8655 1.56645 11.7663 1.41171 11.6393 1.28233C11.3273 1.00253 10.9236 0.851648 10.5077 0.859417C10.4249 0.860819 10.3461 0.895581 10.2885 0.956056C10.231 1.01653 10.1995 1.09777 10.2008 1.18189C10.2022 1.26601 10.2364 1.34613 10.2959 1.40462C10.3554 1.46312 10.4353 1.49519 10.5181 1.49379C10.7662 1.49306 11.007 1.5789 11.2004 1.73696C11.266 1.80787 11.3166 1.8918 11.3488 1.98351C11.381 2.07521 11.3942 2.17269 11.3876 2.26983C11.3938 2.58913 11.19 2.77522 10.8301 3.07337Z" fill="#39412F"/>
</g>
<defs>
<clipPath id="clip0_643:12">
<rect width="21.0101" height="21.3571" fill="white" transform="translate(0.262634 0.821411)"/>
</clipPath>
</defs>
</svg>

<svg xmlns="http://www.w3.org/2000/svg" viewBox="0 0 22 23"><g clip-path="url(#a)" fill="#39412F"><path d="M18.939 8.958a2.54 2.54 0 0 0-1.128.28c.088-.44.133-.885.133-1.333a.32.32 0 0 0-.091-.224.31.31 0 0 0-.22-.093H5.15a.31.31 0 0 0-.22.093.32.32 0 0 0-.092.224 6.662 6.662 0 0 0 1.591 4.352 4.052 4.052 0 0 0-1.809.831 4.144 4.144 0 0 0-1.209 1.6 2.981 2.981 0 0 0-.95.864c-.251.354-.424.76-.506 1.188a.322.322 0 0 0 .087.268l1.587 1.614a.31.31 0 0 0 .37.055l2.058-1.134 2.076-.44h2.738l2.05.436 2.066 1.14a.307.307 0 0 0 .37-.055l1.588-1.613a.316.316 0 0 0 .087-.269 3.04 3.04 0 0 0-.499-1.178 2.984 2.984 0 0 0-.936-.86 4.353 4.353 0 0 0-.732-1.155c.187-.118.368-.245.543-.38l.101-.083c.625-.476 1.311-.33 2.101-.159.432.11.873.171 1.317.186.541 0 1.06-.218 1.442-.607a2.09 2.09 0 0 0 .597-1.465 2.09 2.09 0 0 0-.597-1.465 2.022 2.022 0 0 0-1.442-.607l.01-.01Zm-1.619-.736a6.1 6.1 0 0 1-.428 1.96 5.91 5.91 0 0 1-2.494 2.904 4.302 4.302 0 0 0-2.251-.91 3.315 3.315 0 0 0-1.155-1.054 3.256 3.256 0 0 0-1.502-.4c-.478 0-.95.113-1.379.327-.429.213-.805.524-1.098.908a6.013 6.013 0 0 1-1.55-3.735H17.32Zm-6.656 8.247H8.348l-.967-3.935c.228-.358.54-.652.909-.857a2.49 2.49 0 0 1 1.2-.312 2.67 2.67 0 0 1 1.207.329c.37.203.69.493.932.844l-.965 3.931ZM6.809 12.83l.913 3.711-1.62.351-2.053-2.091c.397-.82 1.19-1.74 2.76-1.971Zm-2.912 5.176-1.292-1.325a2.39 2.39 0 0 1 1.04-1.4l1.818 1.865-1.566.86Zm12.481-1.323-1.302 1.323-1.556-.856 1.83-1.86c.506.313.877.81 1.036 1.39l-.008.003Zm-3.472.21-1.618-.35.913-3.71c1.57.23 2.363 1.147 2.758 1.968l-2.053 2.091Zm6.033-4.418a5.778 5.778 0 0 1-1.188-.171 5.737 5.737 0 0 0-1.284-.178c.413-.51.747-1.08.993-1.692.208-.47.848-.846 1.48-.846.376 0 .736.152 1.001.421.265.27.414.636.414 1.017 0 .382-.149.747-.414 1.017-.265.27-.625.421-1 .421l-.002.01ZM10.83 3.073c-.45.373-1.007.846-1.007 1.827.009 1.33 1.257 1.922 1.926 2.054h.059a.31.31 0 0 0 .229-.072.32.32 0 0 0-.171-.563c-.058 0-1.41-.283-1.41-1.419 0-.695.351-.99.767-1.33.373-.308.795-.66.795-1.298a1.343 1.343 0 0 0-.379-.99A1.648 1.648 0 0 0 10.508.86a.31.31 0 0 0-.22.097.32.32 0 0 0 .008.449c.06.058.14.09.222.089.248 0 .489.085.682.243a.709.709 0 0 1 .188.533c.006.32-.198.505-.558.803Z"/></g><defs><clipPath id="a"><path fill="#fff" transform="translate(.263 .821)" d="M0 0h21.01v21.357H0z"/></clipPath></defs></svg>
